build/svg/cmd/sc_dataconsolidate.svg

<?xml version="1.0" encoding="UTF-8" standalone="no"?>
<svg
   xmlns:dc="http://purl.org/dc/elements/1.1/"
   xmlns:cc="http://creativecommons.org/ns#"
   xmlns:rdf="http://www.w3.org/1999/02/22-rdf-syntax-ns#"
   xmlns:svg="http://www.w3.org/2000/svg"
   xmlns="http://www.w3.org/2000/svg"
   xmlns:sodipodi="http://sodipodi.sourceforge.net/DTD/sodipodi-0.dtd"
   xmlns:inkscape="http://www.inkscape.org/namespaces/inkscape"
   viewBox="0 0 16 16"
   version="1.1"
   id="svg6"
   sodipodi:docname="sc_dataconsolidate.svg"
   inkscape:export-filename="/home/jupiter007/Libreoffice yaru theme fullcolor/build/cmd/sc_dataconsolidate.png"
   inkscape:export-xdpi="96"
   inkscape:export-ydpi="96"
   inkscape:version="0.92.5 (2060ec1f9f, 2020-04-08)">
  <metadata
     id="metadata12">
    <rdf:RDF>
      <cc:Work
         rdf:about="">
        <dc:format>image/svg+xml</dc:format>
        <dc:type
           rdf:resource="http://purl.org/dc/dcmitype/StillImage" />
      </cc:Work>
    </rdf:RDF>
  </metadata>
  <defs
     id="defs10" />
  <sodipodi:namedview
     pagecolor="#ffffff"
     bordercolor="#666666"
     borderopacity="1"
     objecttolerance="10"
     gridtolerance="10"
     guidetolerance="10"
     inkscape:pageopacity="0"
     inkscape:pageshadow="2"
     inkscape:window-width="1920"
     inkscape:window-height="1011"
     id="namedview8"
     showgrid="true"
     inkscape:zoom="29.5"
     inkscape:cx="-0.59572971"
     inkscape:cy="8.4791229"
     inkscape:window-x="1920"
     inkscape:window-y="32"
     inkscape:window-maximized="1"
     inkscape:current-layer="svg6">
    <inkscape:grid
       type="xygrid"
       id="grid840" />
  </sodipodi:namedview>
  <path
     d="M 12.999999,1.0000001 V 3.0000002 L 13,5 H 11 V 3 l -3.0000013,10e-8 v -2 z"
     id="path2"
     inkscape:connector-curvature="0"
     style="fill:#6d6d6d;fill-opacity:1;stroke-width:0.79056942"
     sodipodi:nodetypes="cccccccc" />
  <rect
     style="opacity:1;fill:#ffffff;fill-opacity:1;fill-rule:evenodd;stroke:none;stroke-width:2;stroke-linecap:butt;stroke-linejoin:round;stroke-miterlimit:4;stroke-dasharray:none;stroke-opacity:1"
     id="rect845"
     width="4"
     height="2"
     x="-6"
     y="7"
     ry="0"
     transform="scale(-1,1)" />
  <rect
     ry="0"
     y="12"
     x="-6.0000014"
     height="2"
     width="4"
     id="rect849"
     style="opacity:1;fill:#ffffff;fill-opacity:1;fill-rule:evenodd;stroke:none;stroke-width:2;stroke-linecap:butt;stroke-linejoin:round;stroke-miterlimit:4;stroke-dasharray:none;stroke-opacity:1"
     transform="scale(-1,1)" />
  <path
     style="fill:#232629;fill-opacity:1"
     d="m 7,11 v 4.09375 H 1.0000013 V 11 Z M 6,12 H 2.0000013 v 2 H 6 Z"
     id="path823"
     inkscape:connector-curvature="0" />
  <path
     d="M 6.9999986,6.0000001 V 10.093751 H 0.99999987 V 6 Z m -1,0.9999997 H 1.9999999 v 2.0000009 h 3.9999987 z"
     id="path4-8"
     inkscape:connector-curvature="0"
     style="fill:#232629"
     sodipodi:nodetypes="cccccccccc" />
  <rect
     transform="scale(-1,1)"
     ry="0"
     y="7"
     x="-14"
     height="2"
     width="4"
     id="rect842"
     style="opacity:1;fill:#ffffff;fill-opacity:1;fill-rule:evenodd;stroke:none;stroke-width:2;stroke-linecap:butt;stroke-linejoin:round;stroke-miterlimit:4;stroke-dasharray:none;stroke-opacity:1" />
  <path
     sodipodi:nodetypes="cccccccccc"
     style="fill:#c7162b;fill-opacity:1"
     inkscape:connector-curvature="0"
     id="path845"
     d="M 14.999999,6.0000001 V 10.093751 H 9 V 6 Z m -1,0.9999997 H 10 v 2.0000009 h 3.999999 z" />
  <path
     sodipodi:nodetypes="cccccccc"
     style="fill:#6d6d6d;fill-opacity:1;stroke-width:0.79056942"
     inkscape:connector-curvature="0"
     id="path847"
     d="M 12.999999,15 V 13 L 13,11 h -2 v 2 H 7.9999987 v 2 z" />
  <rect
     transform="scale(-1,1)"
     ry="0"
     y="2"
     x="-6"
     height="2"
     width="4"
     id="rect850"
     style="opacity:1;fill:#ffffff;fill-opacity:1;fill-rule:evenodd;stroke:none;stroke-width:2;stroke-linecap:butt;stroke-linejoin:round;stroke-miterlimit:4;stroke-dasharray:none;stroke-opacity:1" />
  <path
     sodipodi:nodetypes="cccccccccc"
     style="fill:#232629"
     inkscape:connector-curvature="0"
     id="path852"
     d="M 6.9999987,1.0000001 V 5.0937507 H 1 V 1 Z m -1,0.9999997 H 2 v 2.0000009 h 3.9999987 z" />
</svg>

<svg xmlns="http://www.w3.org/2000/svg" viewBox="0 0 16 16"><path d="M13 1v4h-2V3H8V1z" fill="#6d6d6d"/><rect width="4" height="2" x="-6" y="7" ry="0" transform="scale(-1 1)" fill="#fff" fill-rule="evenodd"/><rect ry="0" y="12" x="-6" height="2" width="4" transform="scale(-1 1)" fill="#fff" fill-rule="evenodd"/><path d="M7 11v4.094H1V11zm-1 1H2v2h4zM7 6v4.094H1V6zM6 7H2v2h4z" fill="#232629"/><rect transform="scale(-1 1)" ry="0" y="7" x="-14" height="2" width="4" fill="#fff" fill-rule="evenodd"/><path d="M15 6v4.094H9V6zm-1 1h-4v2h4z" fill="#c7162b"/><path d="M13 15v-4h-2v2H8v2z" fill="#6d6d6d"/><rect transform="scale(-1 1)" ry="0" y="2" x="-6" height="2" width="4" fill="#fff" fill-rule="evenodd"/><path d="M7 1v4.094H1V1zM6 2H2v2h4z" fill="#232629"/></svg>
